X:1
T:He Leadeth Me
T:He Leadeth Me
T:Charles Hutchinson Gabriel
T:Helen Smith Arnold, 1896
T:Public Domain Courtesy of the Cyber Hymnal™
T:Public Domain Courtesy of the Cyber Hymnal™
C:Charles Hutchinson Gabriel
Z:Public Domain
Z:Courtesy of the Cyber Hymnal™
%%score ( 1 2 ) ( 3 4 )
L:1/8
Q:1/4=96
M:4/4
K:Ab
V:1 treble 
V:2 treble 
V:3 bass 
V:4 bass 
V:1
 ([A,C][B,D]) | [CE][CE][CA][DB] [Ec][Ec][Fd][Ec] | [DB]4 [DF]2 [DF][FA] | %3
w: 1.~He *|lead- eth me, for I can feel the|clasp- ing Of that|
w: 2.~He *|lead- eth me, but not thro’ flow- ery|mea- dows, Whe- re|
w: 3.~He *|lead- eth me, but some- times in my|blind- ness, I ~|
w: 4.~He *|lead- eth me, and I will clasp more|close- ly Th- at|
 [DG][DG][DG][DB] [DF][DF][DG][DF] | [CE]6 ([A,C][B,D]) | [CE][CE][CA][DB] | [Ec][Ec][Fd][Ec] | %7
w: pierc- èd hand so firm, so kind, so|dear; And *|in sweet, trust- ing|con- fi- dence I|
w: sun- shine lin- gers all the glad- some|day; My *|tir- èd feet are|oft- en torn and|
w: turn a- side to grasp at earth- ly|toys; Ah, *|then His voice so|ten- der- ly doth|
w: pierc- èd hand so kind, so firm, so|dear; And *|in sweet, trust- ing|con- fi- dence I|
 [DB]4 [DF]2 (FA) | [EG][EG][EG][EG] [EG][Fd][Ec][DB] | [CA]6 ||"^Refrain" [Ec]2 | e2 B2 BdcB | %12
w: fol- low, And *|fear no dan- ger while my guide is|near.|||
w: bleed- ing, With *|thorns that pierce them in this “nar- row|way.”|He|lead- eth me, He lead- eth|
w: win me, That *|like a sha- dow, fly all o- ther|joys.|||
w: fol- low, And *|fear no dan- ger while my guide is|near.|||
 A4 [CE]2 [Ec]2 | e2 B2 BBcd | c6 ([A,C][B,D]) | [CE][CE][CA][DB] [Ec][Ec][Fd][Ec] | %16
w: ||||
w: me, No dan-|* ger then my soul shall|fear, But *|in sweet, trust- ing con- fi- dence I|
w: ||||
w: ||||
 [DB]4 [DF]2 (FA) | [EG][EG][EG][EG] [EG][Fd][Ec][DB] | [CA]6 |] %19
w: |||
w: fol- low, And *|fear no dan- ger while my guide is|near.|
w: |||
w: |||
V:2
 x2 | x8 | x8 | x8 | x8 | x4 | x4 | x6 F2 | x8 | x6 || x2 | (GG) (GG) G2 E2 | ECDD x4 | %13
 (GG) (GG) G2 G2 | (AAAA A2) x2 | x8 | x6 F2 | x8 | x6 |] %19
V:3
 [A,,E,]2 | [A,,A,][A,,A,][A,,A,][A,,A,] A,A,A,A, | [D,F,]4 [D,B,]2 [D,B,][D,B,] | %3
w: ~|~ ~ ~ ~ ~ ~ ~ ~|~ ~ ~ ~|
 [E,B,][E,B,][E,B,][E,G,] [E,B,][E,B,][E,B,][E,G,] | [A,,A,]6 [A,,E,]2 | %5
w: ~ ~ ~ ~ ~ ~ ~ ~|~ ~|
 [A,,A,][A,,A,][A,,A,][A,,A,] | A,A,A,A, | [D,F,]4 [D,B,]2 [=D,B,]2 | %8
w: ~ ~ ~ ~|~ ~ ~ ~|~ ~ ~|
 [E,B,][E,B,][E,B,][E,B,] [E,B,][E,G,][E,G,][E,G,] | [A,,A,]6 || A,2 | %11
w: ~ ~ ~ ~ ~ ~ ~ ~|~|He|
 [E,B,][E,B,][E,E][E,E] [E,E]2 [E,D]2 | [A,,C][A,,E,][A,,F,][A,,G,] [A,,A,]2 A,2 | %13
w: lead- eth me, He lead- eth|me, He lead- eth me, No|
 [E,B,][E,B,][E,E][E,E] [E,E]2 [E,E]2 | [A,E][A,E][E,E][C,E] [A,,E]2 [A,,E,]2 | %15
w: dan- ger then my soul shall|fear, my soul shall fear, *|
 [A,,A,][A,,A,][A,,A,][A,,A,] A,A,A,A, | [D,F,]4 [D,B,]2 [=D,B,]2 | %17
w: ||
 [E,B,][E,B,][E,B,][E,B,] [E,B,][E,G,][E,G,][E,G,] | [A,,A,]6 |] %19
w: ||
V:4
 x2 | x4 A,A,A,A, | x8 | x8 | x8 | x4 | A,A,A,A, | x8 | x8 | x6 || A,2 | x8 | x6 A,2 | x8 | x8 | %15
 x4 A,A,A,A, | x8 | x8 | x6 |] %19

